;FLAVOR:Marlin
;TIME:14450
;Filament used: 7.23145m
;Layer height: 0.2
;MINX:51.8
;MINY:85.202
;MINZ:0.3
;MAXX:158.2
;MAXY:128.2
;MAXZ:17.175
;Generated with Cura_SteamEngine 5.2.2
M82 ;absolute extrusion mode
;Profil Homepage: https://github.com/NilsRo/Cura_Anycubic_MegaS_Profile

;Slicer Information - (Support for OctoPrint Slicer Estimator)
;Slicer info:material_guid;2780b345-577b-4a24-a2c5-12e6aad3e690
;Slicer info:material_id;generic_abs_175
;Slicer info:material_brand;Generic
;Slicer info:material_name;ABS
;Slicer info:filament_cost;[0.0]
;Slicer info:material_bed_temperature;100
;Slicer info:material_bed_temperature_layer_0;100
;Slicer info:material_print_temperature;230
;Slicer info:material_print_temperature_layer_0;235
;Slicer info:material_flow;100
;Slicer info:layer_height;0.2
;Slicer info:machine_nozzle_size;0.4
;Slicer info:wall_thickness;1.2000000000000002
;Slicer info:speed_print;40.0
;Slicer info:speed_topbottom;20.0
;Slicer info:travel_speed;100.0
;Slicer info:support;0
;Slicer info:retraction_speed;30
;Slicer info:retraction_amount;6
;Slicer info:layer_height;0.2
;Slicer info:infill_pattern;lines
;Slicer info:infill_sparse_density;30.0
;Slicer info:cool_fan_enabled;True
;Slicer info:cool_fan_speed;100
;Slicer info:sliced_at;Thu 16-02-2023 16:14:08
G21                                        ; metric values 
G90                                        ; absolute positioning 
M82                                        ; set extruder to absolute mode 
M107                                       ; start with the fan off 
M140 S100   ; Start heating the bed 
G4 S60                                     ; wait 1 minute 
M104 S235 ; start heating the hot end 
M190 S100   ; wait for bed 
M109 S235 ; wait for hotend 
M300 S1000 P500                            ; BEEP heating done 
G28 X0 Y10 Z0                              ; move X/Y to min endstops 
M420 S1                                    ; Enable leveling 
M420 Z2.0                                  ; Set leveling fading height to 2 mm 
G0 Z0.15                                   ; lift nozzle a bit 
G92 E0                                     ; zero the extruded length 
G1 X50 E20 F500                            ; Extrude 20mm of filament in a 5cm line. 
G92 E0                                     ; zero the extruded length again 
G1 E-2 F500                                ; Retract a little 
G1 X50 F500                                ; wipe away from the filament line
G1 X100 F9000                              ; Quickly wipe away from the filament line
G92 E0
G92 E0
G1 F1800 E-6
;LAYER_COUNT:85
;LAYER:0
M106 S76.5
M205 X10 Y10
G1 F480 Z0.375
G0 F6000 X54.789 Y116.038 Z0.375
M205 X8 Y8
;TYPE:SKIRT
G1 F480 Z0.3
G1 F1800 E0
G1 F1200 X55.398 Y115.761 E0.03338
G1 X56.035 Y115.558 E0.06673
G1 X56.693 Y115.433 E0.10015
G1 X57.393 Y115.378 E0.13518
G1 X73.185 Y115.375 E0.92304
G1 X74.067 Y115.389 E0.96705
G1 X74.994 Y115.429 E1.01334
G1 X76 Y115.486 E1.06361
G1 X78.689 Y115.563 E1.19782
G1 X81.342 Y115.563 E1.33018
G1 X84.034 Y115.488 E1.46454
G1 X86.159 Y115.38 E1.57069
G1 X101.887 Y115.378 E2.35537
G1 X103.661 Y115.403 E2.44388
G1 X106.404 Y115.403 E2.58073
G1 X107.454 Y115.38 E2.63313
G1 X123.185 Y115.375 E3.41795
G1 X124.068 Y115.389 E3.46201
G1 X124.994 Y115.429 E3.50825
G1 X126 Y115.486 E3.55852
G1 X128.689 Y115.563 E3.69273
G1 X131.343 Y115.563 E3.82514
G1 X134.035 Y115.488 E3.95949
G1 X136.16 Y115.38 E4.06565
G1 X151.898 Y115.378 E4.85082
G1 X152.671 Y115.389 E4.88939
G1 X153.338 Y115.438 E4.92276
G1 X153.995 Y115.567 E4.95616
G1 X154.631 Y115.773 E4.98951
G1 X155.239 Y116.054 E5.02293
G1 X155.808 Y116.405 E5.05628
G1 X156.332 Y116.821 E5.08966
G1 X156.802 Y117.297 E5.12304
G1 X157.212 Y117.826 E5.15643
G1 X157.556 Y118.4 E5.18981
G1 X157.829 Y119.01 E5.22315
G1 X158.028 Y119.649 E5.25654
G1 X158.148 Y120.307 E5.28991
G1 X158.187 Y120.812 E5.31518
G1 X158.2 Y121.35 E5.34203
G1 X158.19 Y122.635 E5.40614
G1 X158.145 Y123.302 E5.43949
G1 X158.02 Y123.959 E5.47286
G1 X157.818 Y124.597 E5.50625
G1 X157.542 Y125.206 E5.53961
G1 X157.194 Y125.778 E5.57301
G1 X156.782 Y126.305 E5.60638
G1 X156.309 Y126.778 E5.63975
G1 X155.783 Y127.192 E5.67315
G1 X155.211 Y127.54 E5.70655
G1 X154.603 Y127.817 E5.73989
G1 X153.965 Y128.02 E5.77329
G1 X153.308 Y128.145 E5.80666
G1 X152.606 Y128.2 E5.84179
G1 X136.628 Y128.199 E6.63893
G1 X135.764 Y128.185 E6.68204
G1 X134.739 Y128.141 E6.73323
G1 X134.095 Y128.104 E6.76541
G1 X131.402 Y128.024 E6.89982
G1 X128.749 Y128.02 E7.03218
G1 X126.087 Y128.092 E7.16504
G1 X124.324 Y128.182 E7.25311
G1 X123.758 Y128.198 E7.28136
G1 X108.112 Y128.2 E8.06194
G1 X106.339 Y128.175 E8.1504
G1 X103.591 Y128.175 E8.2875
G1 X102.512 Y128.198 E8.34135
G1 X86.707 Y128.2 E9.12986
G1 X85.764 Y128.185 E9.17691
G1 X84.739 Y128.141 E9.2281
G1 X84.095 Y128.104 E9.26028
G1 X81.402 Y128.024 E9.39469
G1 X78.749 Y128.02 E9.52705
G1 X76.087 Y128.092 E9.65991
G1 X74.324 Y128.182 E9.74798
G1 X73.758 Y128.198 E9.77623
G1 X58.035 Y128.2 E10.56065
G1 X57.337 Y128.191 E10.59548
G1 X56.67 Y128.142 E10.62884
G1 X56.013 Y128.014 E10.66224
G1 X55.376 Y127.809 E10.69562
G1 X54.768 Y127.529 E10.72902
G1 X54.198 Y127.179 E10.76239
G1 X53.674 Y126.763 E10.79577
G1 X53.203 Y126.288 E10.82914
G1 X52.792 Y125.76 E10.86252
G1 X52.447 Y125.187 E10.89589
G1 X52.173 Y124.577 E10.92926
G1 X51.973 Y123.938 E10.96266
G1 X51.852 Y123.28 E10.99604
G1 X51.811 Y122.742 E11.02296
G1 X51.8 Y122.214 E11.0493
G1 X51.81 Y120.943 E11.11272
G1 X51.855 Y120.275 E11.14612
G1 X51.98 Y119.618 E11.17949
G1 X52.182 Y118.98 E11.21287
G1 X52.459 Y118.371 E11.24625
G1 X52.806 Y117.799 E11.27963
G1 X53.219 Y117.273 E11.31299
G1 X53.692 Y116.8 E11.34637
G1 X54.218 Y116.386 E11.37976
G1 X54.789 Y116.038 E11.41312
M205 X10 Y10
G0 F6000 X55.165 Y116.297
M205 X8 Y8
G1 F1200 X55.762 Y116.055 E11.44526
G1 X56.385 Y115.889 E11.47743
G1 X57.361 Y115.778 E11.52643
G1 X73.185 Y115.775 E12.3159
G1 X74.05 Y115.789 E12.35906
G1 X74.971 Y115.828 E12.40505
G1 X76 Y115.886 E12.45647
G1 X78.678 Y115.963 E12.59013
G1 X81.353 Y115.963 E12.72358
G1 X84.067 Y115.887 E12.85904
G1 X86.181 Y115.78 E12.96464
G1 X101.887 Y115.778 E13.74822
G1 X103.656 Y115.803 E13.83648
G1 X106.413 Y115.803 E13.97403
G1 X107.463 Y115.78 E14.02643
G1 X123.185 Y115.775 E14.8108
G1 X124.051 Y115.789 E14.85401
G1 X124.971 Y115.828 E14.89995
G1 X126 Y115.886 E14.95137
G1 X128.678 Y115.963 E15.08503
G1 X131.354 Y115.963 E15.21854
G1 X134.066 Y115.887 E15.35389
G1 X136.181 Y115.78 E15.45954
G1 X151.898 Y115.778 E16.24367
G1 X152.665 Y115.789 E16.28194
G1 X153.308 Y115.838 E16.31411
G1 X153.94 Y115.966 E16.34628
G1 X154.551 Y116.172 E16.37845
G1 X155.132 Y116.451 E16.41061
G1 X155.673 Y116.801 E16.44275
G1 X156.168 Y117.215 E16.47495
G1 X156.607 Y117.686 E16.50707
G1 X156.985 Y118.209 E16.53926
G1 X157.295 Y118.774 E16.57142
G1 X157.533 Y119.373 E16.60357
G1 X157.695 Y119.997 E16.63574
G1 X157.787 Y120.825 E16.6773
G1 X157.8 Y121.346 E16.7033
G1 X157.79 Y122.631 E16.76741
G1 X157.745 Y123.275 E16.79962
G1 X157.621 Y123.907 E16.83175
G1 X157.419 Y124.52 E16.86395
G1 X157.143 Y125.102 E16.89609
G1 X156.798 Y125.646 E16.92822
G1 X156.387 Y126.144 E16.96044
G1 X155.919 Y126.586 E16.99255
G1 X155.399 Y126.967 E17.02472
G1 X154.836 Y127.281 E17.05688
G1 X154.238 Y127.523 E17.08906
G1 X153.615 Y127.689 E17.12123
G1 X152.639 Y127.8 E17.17023
G1 X136.633 Y127.799 E17.96878
G1 X135.781 Y127.785 E18.01129
G1 X134.762 Y127.741 E18.06217
G1 X134.129 Y127.705 E18.09381
G1 X131.414 Y127.624 E18.22932
G1 X128.74 Y127.62 E18.36272
G1 X126.056 Y127.692 E18.49668
G1 X124.31 Y127.782 E18.5839
G1 X123.758 Y127.798 E18.61145
G1 X108.112 Y127.8 E19.39203
G1 X106.344 Y127.775 E19.48025
G1 X103.583 Y127.775 E19.618
G1 X102.504 Y127.798 E19.67184
G1 X86.707 Y127.8 E20.45996
G1 X85.781 Y127.785 E20.50616
G1 X84.762 Y127.741 E20.55705
G1 X84.129 Y127.705 E20.58868
G1 X81.414 Y127.624 E20.72419
G1 X78.74 Y127.62 E20.8576
G1 X76.056 Y127.692 E20.99155
G1 X74.31 Y127.782 E21.07877
G1 X73.758 Y127.798 E21.10632
G1 X58.04 Y127.8 E21.8905
G1 X57.342 Y127.791 E21.92532
G1 X56.699 Y127.742 E21.9575
G1 X56.067 Y127.615 E21.98966
G1 X55.456 Y127.41 E22.02181
G1 X54.875 Y127.132 E22.05394
G1 X54.332 Y126.783 E22.08615
G1 X53.837 Y126.37 E22.11831
G1 X53.397 Y125.899 E22.15047
G1 X53.018 Y125.377 E22.18265
G1 X52.707 Y124.813 E22.21478
G1 X52.469 Y124.214 E22.24694
G1 X52.306 Y123.59 E22.27912
G1 X52.211 Y122.731 E22.32223
G1 X52.2 Y122.217 E22.34788
G1 X52.21 Y120.946 E22.41129
G1 X52.255 Y120.303 E22.44345
G1 X52.379 Y119.67 E22.47563
G1 X52.581 Y119.058 E22.50779
G1 X52.857 Y118.475 E22.53997
G1 X53.203 Y117.931 E22.57213
G1 X53.613 Y117.434 E22.60427
G1 X54.082 Y116.992 E22.63643
G1 X54.602 Y116.61 E22.66862
G1 X55.165 Y116.297 E22.70075
M205 X10 Y10
G1 F1800 E16.70075
G1 F480 Z0.375
;MESH:hc-sr04_case - front.stl
G0 F6000 X58.005 Y121.583 Z0.375
M205 X8 Y8
;TYPE:WALL-INNER
G1 F480 Z0.3
G1 F1800 E22.70075
G1 F1167.9 X58.005 Y121.995 E22.72187
G1 X58.211 Y121.995 E22.73243
G1 F1165 X73.391 Y121.994 E23.51249
G1 F1162.2 X73.39 Y121.581 E23.53376
G1 F1165 X58.005 Y121.583 E24.32435
M205 X10 Y10
G0 F6000 X57.6 Y121.178
M205 X8 Y8
;TYPE:WALL-OUTER
G1 F1200 X57.6 Y122.4 E24.38532
G1 X58.211 Y122.4 E24.4158
G1 X73.799 Y122.4 E25.19349
G1 X73.795 Y121.431 E25.24183
G1 X73.706 Y121.175 E25.25535
G1 X57.6 Y121.178 E26.05888
M205 X10 Y10
G0 F6000 X57.6 Y121.378
G1 F1800 E20.05888
G1 F480 Z0.375
G0 F6000 X86.608 Y121.994 Z0.375
M205 X8 Y8
;TYPE:WALL-INNER
G1 F480 Z0.3
G1 F1800 E26.05888
G1 F1167.9 X101.995 Y121.995 E26.84766
G1 X101.995 Y121.789 E26.85822
G1 X101.995 Y121.583 E26.86878
G1 X86.61 Y121.582 E27.65744
G1 X86.608 Y121.994 E27.67856
M205 X10 Y10
G0 F6000 X86.201 Y122.399
M205 X8 Y8
;TYPE:WALL-OUTER
G1 F1200 X102.4 Y122.4 E28.48674
G1 X102.4 Y121.789 E28.51722
G1 X102.4 Y121.178 E28.5477
G1 X86.293 Y121.177 E29.35128
G1 X86.205 Y121.431 E29.36469
G1 X86.201 Y122.399 E29.41299
M205 X10 Y10
G0 F6000 X86.401 Y122.399
G1 F1800 E23.41299
G1 F480 Z0.375
G0 F6000 X108.005 Y121.583 Z0.375
M205 X8 Y8
;TYPE:WALL-INNER
G1 F480 Z0.3
G1 F1800 E29.41299
G1 F1167.9 X108.005 Y121.995 E29.43411
G1 F1165 X123.391 Y121.994 E30.22475
G1 F1162.2 X123.39 Y121.581 E30.24602
G1 F1165 X108.005 Y121.583 E31.03661
M205 X10 Y10
G0 F6000 X107.6 Y121.178
M205 X8 Y8
;TYPE:WALL-OUTER
G1 F1200 X107.6 Y122.4 E31.09758
G1 X123.799 Y122.4 E31.90575
G1 X123.796 Y121.482 E31.95155
G1 X123.706 Y121.175 E31.96751
G1 X107.6 Y121.178 E32.77104
M205 X10 Y10
G0 F6000 X107.6 Y121.378
G1 F1800 E26.77104
G1 F480 Z0.375
G0 F6000 X136.608 Y121.994 Z0.375
M205 X8 Y8
;TYPE:WALL-INNER
G1 F480 Z0.3
G1 F1800 E32.77104
G1 F1167.9 X151.995 Y121.995 E33.55981
G1 X151.995 Y121.789 E33.57037
G1 X151.995 Y121.583 E33.58093
G1 X136.61 Y121.582 E34.3696
G1 X136.608 Y121.994 E34.39072
M205 X10 Y10
G0 F6000 X136.201 Y122.399
M104 S230
M205 X8 Y8
;TYPE:WALL-OUTER
G1 F1200 X152.4 Y122.4 E35.19889
G1 X152.4 Y121.789 E35.22937
G1 X152.4 Y121.178 E35.25986
G1 X136.293 Y121.177 E36.06344
G1 X136.205 Y121.431 E36.07685
G1 X136.201 Y122.399 E36.12514
M205 X10 Y10
G0 F6000 X136.401 Y122.399
G1 F1800 E30.12514
G1 F480 Z0.375
;MESH:NONMESH
G0 F6000 X58.074 Y121.376 Z0.375
;TIME_ELAPSED:45.633236
;LAYER:1
M106 S165.8
;MESH:hc-sr04_case - front.stl
G0 X58.074 Y121.376 Z0.575
M205 X8 Y8
;TYPE:WALL-INNER
G1 F480 Z0.5
G1 F1800 E36.12514
G1 F874.3 X58.074 Y121.926 E36.15025
G1 X73.322 Y121.925 E36.84631
G1 F872.7 X73.275 Y121.376 E36.87151
G1 X73.199 Y121.376 E36.87499
G1 F874.3 X58.074 Y121.376 E37.56544
M205 X10 Y10
G0 F6000 X57.6 Y120.902
M205 X8 Y8
;TYPE:WALL-OUTER
G1 F1200 X57.6 Y122.4 E37.61526
G1 X73.799 Y122.4 E38.15404
G1 X73.794 Y121.266 E38.19176
G1 X73.503 Y120.901 E38.20729
G1 X73.199 Y120.901 E38.2174
G1 X57.6 Y120.902 E38.73622
M205 X10 Y10
G0 F6000 X57.6 Y121.102
G1 F1800 E32.73622
G1 F480 Z0.575
G0 F6000 X86.677 Y121.926 Z0.575
M205 X8 Y8
;TYPE:WALL-INNER
G1 F480 Z0.5
G1 F1800 E38.73622
G1 F874.3 X101.926 Y121.926 E39.43233
G1 X101.926 Y121.651 E39.44489
G1 X101.926 Y121.376 E39.45744
G1 X86.725 Y121.376 E40.15136
G1 X86.677 Y121.926 E40.17656
M205 X10 Y10
G0 F6000 X86.201 Y122.4
M205 X8 Y8
;TYPE:WALL-OUTER
G1 F1200 X102.4 Y122.4 E40.71534
G1 X102.4 Y121.651 E40.74025
G1 X102.4 Y120.902 E40.76517
G1 X86.497 Y120.902 E41.2941
G1 X86.206 Y121.265 E41.30958
G1 X86.201 Y122.4 E41.34733
M205 X10 Y10
G0 F6000 X86.401 Y122.4
G1 F1800 E35.34733
G1 F480 Z0.575
G0 F6000 X108.074 Y121.376 Z0.575
M205 X8 Y8
;TYPE:WALL-INNER
G1 F480 Z0.5
G1 F1800 E41.34733
G1 F874.3 X108.074 Y121.926 E41.37243
G1 X123.322 Y121.925 E42.0685
G1 F872.7 X123.321 Y121.498 E42.08802
G1 X123.275 Y121.376 E42.09399
G1 F874.3 X108.074 Y121.376 E42.78791
M205 X10 Y10
G0 F6000 X107.6 Y120.902
M205 X8 Y8
;TYPE:WALL-OUTER
G1 F1200 X107.6 Y122.4 E42.83773
G1 X123.799 Y122.4 E43.37651
G1 X123.796 Y121.496 E43.40658
G1 X123.734 Y121.19 E43.41696
G1 X123.503 Y120.901 E43.42927
G1 X107.6 Y120.902 E43.9582
M205 X10 Y10
G0 F6000 X107.6 Y121.102
G1 F1800 E37.9582
G1 F480 Z0.575
G0 F6000 X136.677 Y121.926 Z0.575
M205 X8 Y8
;TYPE:WALL-INNER
G1 F480 Z0.5
G1 F1800 E43.9582
G1 F874.3 X151.926 Y121.926 E44.65431
G1 X151.926 Y121.651 E44.66687
G1 X151.926 Y121.376 E44.67942
G1 X136.725 Y121.376 E45.37334
G1 X136.677 Y121.926 E45.39854
M205 X10 Y10
G0 F6000 X136.201 Y122.4
M205 X8 Y8
;TYPE:WALL-OUTER
G1 F1200 X152.4 Y122.4 E45.93732
G1 X152.4 Y121.651 E45.96224
G1 X152.4 Y120.902 E45.98715
G1 X136.497 Y120.902 E46.51608
G1 X136.206 Y121.265 E46.53156
G1 X136.201 Y122.4 E46.56931
M205 X10 Y10
G0 F6000 X136.401 Y122.4
G1 F1800 E40.56931
G1 F480 Z0.575
;MESH:NONMESH
G0 F6000 X58 Y121.184 Z0.575
;TIME_ELAPSED:64.531700
;LAYER:2
M106 S255
;MESH:hc-sr04_case - front.stl
G0 X58 Y121.184 Z0.775
M205 X8 Y8
;TYPE:WALL-INNER
G1 F480 Z0.7
G1 F1800 E46.56931
G1 F1200 X58 Y122 E46.59645
G1 X73.397 Y122 E47.10855
G1 X73.396 Y121.517 E47.12462
G1 X73.221 Y121.184 E47.13713
G1 X58 Y121.184 E47.64338
M205 X10 Y10
G0 F6000 X57.6 Y120.784
M205 X8 Y8
;TYPE:WALL-OUTER
G1 F1200 X57.6 Y122.4 E47.69713
G1 X73.799 Y122.4 E48.23591
G1 X73.796 Y121.516 E48.26531
G1 X73.731 Y121.183 E48.2766
G1 X73.532 Y120.908 E48.28789
G1 X73.339 Y120.784 E48.29552
G1 X57.6 Y120.784 E48.819
M205 X10 Y10
G0 F6000 X57.6 Y120.984
G0 X58.408 Y121.592
M205 X8 Y8
;TYPE:WALL-INNER
G1 F1151.1 X72.987 Y121.592 E49.32451
M205 X10 Y10
G1 F1800 E43.32451
G1 F480 Z0.775
G0 F6000 X86.603 Y122 Z0.775
M205 X8 Y8
G1 F480 Z0.7
G1 F1800 E49.32451
G1 F1200 X102 Y122 E49.83661
G1 X102 Y121.592 E49.85018
G1 X102 Y121.184 E49.86375
G1 X86.776 Y121.184 E50.37011
G1 X86.605 Y121.394 E50.37911
G1 X86.603 Y122 E50.39927
M205 X10 Y10
G0 F6000 X86.201 Y122.4
M205 X8 Y8
;TYPE:WALL-OUTER
G1 F1200 X102.4 Y122.4 E50.93805
G1 X102.4 Y121.592 E50.96493
G1 X102.4 Y120.784 E50.9918
G1 X86.659 Y120.784 E51.51535
G1 X86.271 Y121.178 E51.53374
G1 X86.205 Y121.42 E51.54208
G1 X86.201 Y122.4 E51.57468
M205 X10 Y10
G0 F6000 X86.401 Y122.4
G0 X87.012 Y121.592
M205 X8 Y8
;TYPE:WALL-INNER
G1 F1153.8 X101.592 Y121.592 E52.07901
M205 X10 Y10
G1 F1800 E46.07901
G1 F480 Z0.775
G0 F6000 X108 Y121.184 Z0.775
M205 X8 Y8
G1 F480 Z0.7
G1 F1800 E52.07901
G1 F1200 X108 Y122 E52.10615
G1 X123.397 Y122 E52.61825
G1 X123.395 Y121.474 E52.63575
G1 X123.26 Y121.215 E52.64546
G1 X123.221 Y121.184 E52.64712
G1 X108 Y121.184 E53.15337
M205 X10 Y10
G0 F6000 X107.6 Y120.784
M205 X8 Y8
;TYPE:WALL-OUTER
G1 F1200 X107.6 Y122.4 E53.20712
G1 X123.799 Y122.4 E53.7459
G1 X123.795 Y121.42 E53.7785
G1 X123.585 Y120.981 E53.79468
G1 X123.339 Y120.784 E53.80517
G1 X107.6 Y120.784 E54.32865
M205 X10 Y10
G0 F6000 X107.6 Y120.984
G0 X108.408 Y121.592
M205 X8 Y8
;TYPE:WALL-INNER
G1 F1151.1 X122.987 Y121.592 E54.83415
M205 X10 Y10
G1 F1800 E48.83415
G1 F480 Z0.775
G0 F6000 X136.603 Y122 Z0.775
M205 X8 Y8
G1 F480 Z0.7
G1 F1800 E54.83415
G1 F1200 X152 Y122 E55.34626
G1 X152 Y121.592 E55.35983
G1 X152 Y121.184 E55.3734
G1 X136.776 Y121.184 E55.87975
G1 X136.605 Y121.394 E55.88876
G1 X136.603 Y122 E55.90892
M205 X10 Y10
G0 F6000 X136.201 Y122.4
M205 X8 Y8
;TYPE:WALL-OUTER
G1 F1200 X152.4 Y122.4 E56.4477
